X: 10051
M: C|
L: 1/8
K: Bb
d |\
fBfd fBgf | dBfd {d}c2(cd) | fBfd fBgB | FBBA {c}B2(Bd) |
fBfd fBgf | dBfd c2(cd) | B2BA (BA)GF | GBAc dBB |]


